X:3291
T:Concert Reel, The
R:reel
D:Frankie Gavin & Alec Finn.
D:Stockton's Wing.
Z:Bars 1 and 5 are sometimes played ~G3A B2GB
Z:id:hn-reel-59
M:C|
K:G
~G3A B2gB|BAGB AGED|GBAF GA (3B^cd|egfa gedB|
~G3A B2gB|BAGB AGED|GBAF GA (3B^cd|egfa g4:|
|:~g3a bgaf|g2ba gfed|~B3A GA (3B^cd|egfa gfed|
~g3a bgaf|g2ba gfed|(3Bcd BA GA (3B^cd|egfa g4:|


